icons/arrow-square-topleftB.svg

<svg width="24" height="24" viewBox="0 0 24 24" fill="none" xmlns="http://www.w3.org/2000/svg">
<path d="M21 9V15C21 18.3 18.3 21 15 21H9C5.7 21 3 18.3 3 15V9C3 5.7 5.7 3 9 3H15C18.3 3 21 5.6 21 9Z" fill="black"/>
<path fill-rule="evenodd" clip-rule="evenodd" d="M9 3.75C6.11421 3.75 3.75 6.11421 3.75 9V15C3.75 17.8858 6.11421 20.25 9 20.25H15C17.8858 20.25 20.25 17.8858 20.25 15V9C20.25 6.02236 17.894 3.75 15 3.75H9ZM2.25 9C2.25 5.28579 5.28579 2.25 9 2.25H15C18.706 2.25 21.75 5.17764 21.75 9V15C21.75 18.7142 18.7142 21.75 15 21.75H9C5.28579 21.75 2.25 18.7142 2.25 15V9Z" fill="black"/>
<path d="M9.45751 13.5129L9.45751 9.97734C9.45751 9.69449 9.66964 9.48236 9.95249 9.48236L13.488 9.48236" fill="black"/>
<path fill-rule="evenodd" clip-rule="evenodd" d="M10.2075 10.2324L13.488 10.2324C13.9022 10.2324 14.238 9.89658 14.238 9.48236C14.238 9.06815 13.9022 8.73236 13.488 8.73236H9.95248C9.25542 8.73236 8.7075 9.28028 8.7075 9.97734L9.4575 9.97734L8.7075 9.97734L8.7075 13.5129C8.7075 13.9271 9.04329 14.2629 9.4575 14.2629C9.87172 14.2629 10.2075 13.9271 10.2075 13.5129L10.2075 10.2324Z" fill="white"/>
<path fill-rule="evenodd" clip-rule="evenodd" d="M9.56353 9.51777C9.85643 9.22487 10.3313 9.22487 10.6242 9.51777L14.8668 13.7604C15.1597 14.0533 15.1597 14.5282 14.8668 14.8211C14.5739 15.114 14.0991 15.114 13.8062 14.8211L9.56353 10.5784C9.27064 10.2855 9.27064 9.81066 9.56353 9.51777Z" fill="white"/>
</svg>

<svg xmlns="http://www.w3.org/2000/svg" fill="none" viewBox="0 0 24 24">
  <path fill="#000" d="M21 9v6c0 3.3-2.7 6-6 6H9c-3.3 0-6-2.7-6-6V9c0-3.3 2.7-6 6-6h6c3.3 0 6 2.6 6 6Z"/>
  <path fill="#000" fill-rule="evenodd" d="M9 3.75C6.114 3.75 3.75 6.114 3.75 9v6c0 2.886 2.364 5.25 5.25 5.25h6c2.886 0 5.25-2.364 5.25-5.25V9c0-2.978-2.356-5.25-5.25-5.25H9ZM2.25 9c0-3.714 3.036-6.75 6.75-6.75h6c3.706 0 6.75 2.928 6.75 6.75v6c0 3.714-3.036 6.75-6.75 6.75H9c-3.714 0-6.75-3.036-6.75-6.75V9Z" clip-rule="evenodd"/>
  <path fill="#000" d="M9.458 13.513V9.977c0-.283.212-.495.494-.495h3.536"/>
  <path fill="#fff" fill-rule="evenodd" d="M10.207 10.232h3.281a.75.75 0 0 0 0-1.5H9.952c-.697 0-1.245.548-1.245 1.245h.75-.75v3.536a.75.75 0 0 0 1.5 0v-3.28Z" clip-rule="evenodd"/>
  <path fill="#fff" fill-rule="evenodd" d="M9.564 9.518a.75.75 0 0 1 1.06 0l4.243 4.242a.75.75 0 0 1-1.06 1.061l-4.243-4.243a.75.75 0 0 1 0-1.06Z" clip-rule="evenodd"/>
</svg>
